dist/images/index/logo-liki-24.svg

<svg width="195" height="72" viewBox="0 0 195 72" fill="none" xmlns="http://www.w3.org/2000/svg">
<path fill-rule="evenodd" clip-rule="evenodd" d="M157.493 0.454102C148.511 0.85273 140.007 4.56632 133.662 10.8607C119.581 24.7874 119.581 47.3667 133.662 61.2935C140.007 67.5879 148.511 71.3015 157.493 71.7001V0.454102ZM184.658 10.8607C178.313 4.56682 169.809 0.853317 160.827 0.454102V71.7001C169.809 71.3009 178.313 67.5874 184.658 61.2935C198.739 47.3667 198.739 24.7874 184.658 10.8607Z" fill="#3FCFD5"/>
<path fill-rule="evenodd" clip-rule="evenodd" d="M148.223 30.8461V31.6106C148.223 33.5917 147.837 35.1207 145.304 38.1096L140.201 44.1929H148.471V46.7277H136.613V44.4687L143.65 35.6763C144.986 34.0074 145.232 33.2794 145.232 31.6451V31.0205C145.232 28.796 144.144 27.9261 141.574 27.9261C140.201 27.9261 138.372 28.3094 137.141 28.6906V26.1538C138.691 25.7361 140.343 25.4238 141.574 25.4238C146.148 25.4238 148.225 27.265 148.225 30.8461H148.223ZM170.492 39.8129H176.896V29.2117L170.492 39.8129ZM179.78 39.8129H181.927V42.2463H179.78V46.7277H176.859V42.2463H167.292V40.1942L176.367 25.8395H179.78V39.8109V39.8129Z" fill="white"/>
<path fill-rule="evenodd" clip-rule="evenodd" d="M4.65789 47.9361H16.8362V51.4077H0.675781V21.1025H4.65789V47.9361ZM34.5791 51.4077H38.5612V21.1025H34.5791V51.4077ZM70.3483 35.7695L83.3209 51.4077H78.218L66.2266 36.5562V51.4077H62.2465V21.1025H66.2286V35.7228L77.6536 21.1025H82.1037L70.3483 35.7695ZM98.7587 51.4077H102.739V21.1025H98.7567L98.7587 51.4077Z" fill="black"/>
</svg>

<svg width="195" height="72" viewBox="0 0 195 72" fill="none" xmlns="http://www.w3.org/2000/svg"><path fill-rule="evenodd" clip-rule="evenodd" d="M157.493.454c-8.982.399-17.486 4.112-23.831 10.407-14.081 13.926-14.081 36.506 0 50.432 6.345 6.295 14.849 10.009 23.831 10.407V.454zm27.165 10.407C178.313 4.567 169.809.853 160.827.454V71.7c8.982-.4 17.486-4.113 23.831-10.407 14.081-13.926 14.081-36.506 0-50.432z" fill="#3FCFD5"/><path fill-rule="evenodd" clip-rule="evenodd" d="M148.223 30.846v.765c0 1.98-.386 3.51-2.919 6.499l-5.103 6.083h8.27v2.535h-11.858v-2.26l7.037-8.792c1.336-1.669 1.582-2.397 1.582-4.03v-.626c0-2.224-1.088-3.094-3.658-3.094-1.373 0-3.202.383-4.433.765v-2.537c1.55-.418 3.202-.73 4.433-.73 4.574 0 6.651 1.841 6.651 5.422h-.002zm22.269 8.967h6.404V29.212l-6.404 10.6zm9.288 0h2.147v2.433h-2.147v4.482h-2.921v-4.482h-9.567v-2.052l9.075-14.355h3.413v13.974z" fill="#fff"/><path fill-rule="evenodd" clip-rule="evenodd" d="M4.658 47.936h12.178v3.472H.676V21.102h3.982v26.834zm29.921 3.472h3.982V21.102H34.58v30.306zm35.77-15.639l12.971 15.64h-5.103l-11.99-14.853v14.852h-3.98V21.102h3.982v14.62l11.425-14.62h4.45L70.348 35.77zm28.41 15.639h3.98V21.102h-3.982l.002 30.306z" fill="#000"/></svg>
